rospo-icon-theme-classic-common/32x32/apps/soulseek.svg

<svg height="32" width="32" xmlns="http://www.w3.org/2000/svg"><path d="m16 3c-7.756 0-14 6.244-14 14s6.244 14 14 14 14-6.244 14-14-6.244-14-14-14z" opacity=".2"/><path d="m16 2c-7.756 0-14 6.244-14 14s6.244 14 14 14 14-6.244 14-14-6.244-14-14-14z" fill="#4f4f4f"/><path d="m14.736434 26c-.406627-.11282-.952948-.316653-1.304794-1.063081-.483077-1.024823-.482295-1.003311-.05928-1.629082.586664-.867896 1.645401-2.411604 1.645401-2.832881 0-.26556-.263291-.474888-.915521-.727878-1.405264-.545084-3.310094-1.466606-4.2919542-2.191083-1.202586-.887342-2.3257591-2.551348-2.6756257-3.710288-.2459686-.814776-.1641579-.99076.3214223-.691414 2.5478796 1.462626 3.3440966 1.691736 5.8691086 1.920709 1.568795-.06829 2.793233-.995512 2.731809-2.099677-.05022-.832901-.601168-1.541516-.935176-2.607689-.188362-.6012548-.08361-.8119224-.04924-1.0428163.02368-.1591412.08437-.3053094.134833-.3248197.2781.157271.462723.4306658.729823.536138.632014.2495701 1.298511.2529564 1.96977.547322.686302.350981.991781.703272 1.144568 1.331946.10972.451468.409862.756345.71986 1.058564.146915.143226.267124.29782.267124.34354 0 .232471-.758689.189403-1.382467.01308-.54844-.15502-.705452.539595-.649095 1.041412.08435 1.334198 1.821534 1.086948 3.309198 1.202996 1.240674.09678 3.356686-.06622 4.96447-.756755.33672-.14462.660417-.252839.719337-.240486-.548394 2.349297-2.906966 4.34942-4.945254 5.206364-1.005433.406364-2.457045.869928-2.893055.923878-1.084029.134135-1.455653.276027-1.630891.622694-.199758.395153-.493365 2.214312-.602228 3.59775-.260388 1.15763-1.442657 1.562905-2.192123 1.571547z" opacity=".2"/><path d="m14.736434 25c-.406627-.11282-.952948-.316653-1.304794-1.063081-.483077-1.024823-.482295-1.003311-.05928-1.629082.586664-.867896 1.645401-2.411604 1.645401-2.832881 0-.26556-.263291-.474888-.915521-.727878-1.405264-.545084-3.310094-1.466606-4.2919542-2.191083-1.202586-.887342-2.3257591-2.551348-2.6756257-3.710288-.2459686-.814776-.1641579-.99076.3214223-.691414 2.5478796 1.462626 3.3440966 1.691736 5.8691086 1.920709 1.568795-.06829 2.793233-.995512 2.731809-2.099677-.05022-.832901-.601168-1.541516-.935176-2.6076886-.188362-.6012552-.08361-.8119228-.04924-1.0428167.02368-.1591412.08437-.3053094.134833-.3248197.2781.157271.462723.4306658.729823.536138.632014.2495701 1.298511.2529564 1.96977.5473224.686302.3509802.991781.7032721 1.144568 1.3319456.10972.451468.409862.756345.71986 1.058564.146915.143226.267124.29782.267124.34354 0 .232471-.758689.189403-1.382467.01308-.54844-.15502-.705452.539595-.649095 1.041412.08435 1.334198 1.821534 1.086948 3.309198 1.202996 1.240674.09678 3.356686-.06622 4.96447-.756755.33672-.14462.660417-.252839.719337-.240486-.548394 2.349297-2.906966 4.34942-4.945254 5.206364-1.005433.406364-2.457045.869928-2.893055.923878-1.084029.134135-1.455653.276027-1.630891.622694-.199758.395153-.493365 2.214312-.602228 3.59775-.260388 1.15763-1.442657 1.562905-2.192123 1.571547z" fill="#4895fb"/><path d="m16 2c-7.756 0-14 6.244-14 14 0 .168842.0195214.33264.0253906.5.263742-7.5205675 6.3874512-13.5 13.9746094-13.5 7.587158 0 13.710867 5.9794325 13.974609 13.5.00587-.16736.025391-.331158.025391-.5 0-7.756-6.244-14-14-14z" fill="#fff" opacity=".1"/><path d="m15.207031 8c-.05046.01951-.111085.1650776-.134765.3242188-.03173.2131825-.114838.4237407.01953.9257812.029-.1252259.07347-.2338515.115234-.25.2781.157271.463369.4316372.730469.5371094.632014.2495701 1.297491.252509 1.96875.5468746.686302.350981.991744.703358 1.144531 1.332032.0499.205305.142234.376944.253907.535156.399897.04418.734374.01946.734374-.132813 0-.04572-.120663-.200524-.267578-.34375-.309997-.302219-.610982-.607125-.720702-1.058593-.152787-.6286739-.458229-.9810514-1.144531-1.3320316-.671259-.294366-1.336736-.2973049-1.96875-.546875-.2671-.1054722-.452369-.3798384-.730469-.5371094zm-8.0410154 4.021484c-.2163336-.0386-.2157264.213137-.03125.824219.01848.06121.061292.135375.083984.199219.066246.02002.1387848.04804.2382812.109375 2.5478798 1.462626 3.3421758 1.690949 5.8671878 1.919922 1.568795-.06829 2.793846-.995445 2.732422-2.09961-.0094-.155394-.05028-.303253-.08984-.453125-.292119.847359-1.343393 1.496181-2.642578 1.552735-2.5250156-.228973-3.3193116-.457296-5.8671914-1.919922-.121395-.074837-.2189044-.119946-.2910156-.132813zm19.8339844 1.056641c-.05892-.01235-.38203.09561-.71875.240234-1.607784.690535-3.72417.85264-4.964844.75586-1.352258-.105486-2.896581.07705-3.232422-.888672-.07554.208027-.101306.461744-.07617.685547.08435 1.334198 1.82093 1.087077 3.308594 1.203125 1.240674.09678 3.35706-.06532 4.964844-.75586.132822-.05705.169885-.05515.283203-.0957.184092-.37106.343455-.750023.435545-1.144534zm-12.222656 7.009766c-.343969.654048-.986847 1.603138-1.404297 2.220703-.348959.516219-.39312.622975-.132813 1.208984.04247-.06683.07366-.121472.132813-.208984.586664-.867896 1.644531-2.412708 1.644531-2.833985 0-.139221-.0774-.264014-.240234-.386718z" fill="#fff" opacity=".1"/></svg>

<svg xmlns="http://www.w3.org/2000/svg" width="32" height="32" version="1">
 <path style="opacity:0.2" d="M 16,3 C 8.244,3 2,9.244 2,17 2,24.756 8.244,31 16,31 23.756,31 30,24.756 30,17 30,9.244 23.756,3 16,3 Z"/>
 <path style="fill:#4f4f4f" d="M 16,2 C 8.244,2 2,8.244 2,16 2,23.756 8.244,30 16,30 23.756,30 30,23.756 30,16 30,8.244 23.756,2 16,2 Z"/>
 <path style="opacity:0.2" d="m 14.736434,26 c -0.406627,-0.11282 -0.952948,-0.316653 -1.304794,-1.063081 -0.483077,-1.024823 -0.482295,-1.003311 -0.05928,-1.629082 0.586664,-0.867896 1.645401,-2.411604 1.645401,-2.832881 0,-0.26556 -0.263291,-0.474888 -0.915521,-0.727878 C 12.696976,19.201994 10.792146,18.280472 9.8102858,17.555995 8.6076998,16.668653 7.4845267,15.004647 7.1346601,13.845707 6.8886915,13.030931 6.9705022,12.854947 7.4560824,13.154293 10.003962,14.616919 10.800179,14.846029 13.325191,15.075002 14.893986,15.006712 16.118424,14.07949 16.057,12.975325 16.00678,12.142424 15.455832,11.433809 15.121824,10.367636 14.933462,9.7663812 15.038214,9.5557136 15.072584,9.3248197 15.096264,9.1656785 15.156954,9.0195103 15.207417,9 c 0.2781,0.157271 0.462723,0.4306658 0.729823,0.536138 0.632014,0.2495701 1.298511,0.2529564 1.96977,0.547322 0.686302,0.350981 0.991781,0.703272 1.144568,1.331946 0.10972,0.451468 0.409862,0.756345 0.71986,1.058564 0.146915,0.143226 0.267124,0.29782 0.267124,0.34354 0,0.232471 -0.758689,0.189403 -1.382467,0.01308 -0.54844,-0.15502 -0.705452,0.539595 -0.649095,1.041412 0.08435,1.334198 1.821534,1.086948 3.309198,1.202996 1.240674,0.09678 3.356686,-0.06622 4.96447,-0.756755 0.33672,-0.14462 0.660417,-0.252839 0.719337,-0.240486 -0.548394,2.349297 -2.906966,4.34942 -4.945254,5.206364 -1.005433,0.406364 -2.457045,0.869928 -2.893055,0.923878 -1.084029,0.134135 -1.455653,0.276027 -1.630891,0.622694 -0.199758,0.395153 -0.493365,2.214312 -0.602228,3.59775 -0.260388,1.15763 -1.442657,1.562905 -2.192123,1.571547 z"/>
 <path style="fill:#4895fb" d="m 14.736434,25 c -0.406627,-0.11282 -0.952948,-0.316653 -1.304794,-1.063081 -0.483077,-1.024823 -0.482295,-1.003311 -0.05928,-1.629082 0.586664,-0.867896 1.645401,-2.411604 1.645401,-2.832881 0,-0.26556 -0.263291,-0.474888 -0.915521,-0.727878 C 12.696976,18.201994 10.792146,17.280472 9.8102858,16.555995 8.6076998,15.668653 7.4845267,14.004647 7.1346601,12.845707 6.8886915,12.030931 6.9705022,11.854947 7.4560824,12.154293 10.003962,13.616919 10.800179,13.846029 13.325191,14.075002 14.893986,14.006712 16.118424,13.07949 16.057,11.975325 16.00678,11.142424 15.455832,10.433809 15.121824,9.3676364 14.933462,8.7663812 15.038214,8.5557136 15.072584,8.3248197 15.096264,8.1656785 15.156954,8.0195103 15.207417,8 c 0.2781,0.157271 0.462723,0.4306658 0.729823,0.536138 0.632014,0.2495701 1.298511,0.2529564 1.96977,0.5473224 0.686302,0.3509802 0.991781,0.7032721 1.144568,1.3319456 0.10972,0.451468 0.409862,0.756345 0.71986,1.058564 0.146915,0.143226 0.267124,0.29782 0.267124,0.34354 0,0.232471 -0.758689,0.189403 -1.382467,0.01308 -0.54844,-0.15502 -0.705452,0.539595 -0.649095,1.041412 0.08435,1.334198 1.821534,1.086948 3.309198,1.202996 1.240674,0.09678 3.356686,-0.06622 4.96447,-0.756755 0.33672,-0.14462 0.660417,-0.252839 0.719337,-0.240486 -0.548394,2.349297 -2.906966,4.34942 -4.945254,5.206364 -1.005433,0.406364 -2.457045,0.869928 -2.893055,0.923878 -1.084029,0.134135 -1.455653,0.276027 -1.630891,0.622694 -0.199758,0.395153 -0.493365,2.214312 -0.602228,3.59775 -0.260388,1.15763 -1.442657,1.562905 -2.192123,1.571547 z"/>
 <path style="fill:#ffffff;opacity:0.1" d="M 16 2 C 8.244 2 2 8.244 2 16 C 2 16.168842 2.0195214 16.33264 2.0253906 16.5 C 2.2891326 8.9794325 8.4128418 3 16 3 C 23.587158 3 29.710867 8.9794325 29.974609 16.5 C 29.980479 16.33264 30 16.168842 30 16 C 30 8.244 23.756 2 16 2 z"/>
 <path style="opacity:0.1;fill:#ffffff" d="m 15.207031,8 c -0.05046,0.01951 -0.111085,0.1650776 -0.134765,0.3242188 -0.03173,0.2131825 -0.114838,0.4237407 0.01953,0.9257812 0.029,-0.1252259 0.07347,-0.2338515 0.115234,-0.25 0.2781,0.157271 0.463369,0.4316372 0.730469,0.5371094 0.632014,0.2495701 1.297491,0.252509 1.96875,0.5468746 0.686302,0.350981 0.991744,0.703358 1.144531,1.332032 0.0499,0.205305 0.142234,0.376944 0.253907,0.535156 0.399897,0.04418 0.734374,0.01946 0.734374,-0.132813 0,-0.04572 -0.120663,-0.200524 -0.267578,-0.34375 C 19.461486,11.17239 19.160501,10.867484 19.050781,10.416016 18.897994,9.7873421 18.592552,9.4349646 17.90625,9.0839844 17.234991,8.7896184 16.569514,8.7866795 15.9375,8.5371094 15.6704,8.4316372 15.485131,8.157271 15.207031,8 Z m -8.0410154,4.021484 c -0.2163336,-0.0386 -0.2157264,0.213137 -0.03125,0.824219 0.01848,0.06121 0.061292,0.135375 0.083984,0.199219 0.066246,0.02002 0.1387848,0.04804 0.2382812,0.109375 2.5478798,1.462626 3.3421758,1.690949 5.8671878,1.919922 1.568795,-0.06829 2.793846,-0.995445 2.732422,-2.09961 -0.0094,-0.155394 -0.05028,-0.303253 -0.08984,-0.453125 -0.292119,0.847359 -1.343393,1.496181 -2.642578,1.552735 C 10.799207,13.845246 10.004911,13.616923 7.4570312,12.154297 7.3356362,12.07946 7.2381268,12.034351 7.1660156,12.021484 Z M 27,13.078125 c -0.05892,-0.01235 -0.38203,0.09561 -0.71875,0.240234 -1.607784,0.690535 -3.72417,0.85264 -4.964844,0.75586 -1.352258,-0.105486 -2.896581,0.07705 -3.232422,-0.888672 -0.07554,0.208027 -0.101306,0.461744 -0.07617,0.685547 0.08435,1.334198 1.82093,1.087077 3.308594,1.203125 1.240674,0.09678 3.35706,-0.06532 4.964844,-0.75586 0.132822,-0.05705 0.169885,-0.05515 0.283203,-0.0957 C 26.748547,13.851599 26.90791,13.472636 27,13.078125 Z m -12.222656,7.009766 c -0.343969,0.654048 -0.986847,1.603138 -1.404297,2.220703 -0.348959,0.516219 -0.39312,0.622975 -0.132813,1.208984 0.04247,-0.06683 0.07366,-0.121472 0.132813,-0.208984 0.586664,-0.867896 1.644531,-2.412708 1.644531,-2.833985 0,-0.139221 -0.0774,-0.264014 -0.240234,-0.386718 z"/>
</svg>
